img/svg/icon-font/book-edit.svg

<svg width="22" height="22" viewBox="0 0 22 22" fill="none" xmlns="http://www.w3.org/2000/svg">
<g clip-path="url(#clip0)">
<path d="M21.6148 0.946309C21.3991 0.784001 21.1198 0.732304 20.8605 0.806828C19.865 1.09267 18.5962 1.01194 16.9899 0.909886C15.9842 0.845937 14.8444 0.773427 13.5352 0.773427C12.5093 0.773427 11.5875 1.22577 10.957 1.9408C10.3266 1.22577 9.40495 0.773427 8.3789 0.773427C7.06986 0.773427 5.92984 0.845937 4.92411 0.909886C3.31781 1.0121 2.04906 1.09284 1.05356 0.806828C0.794233 0.732304 0.514935 0.784001 0.29942 0.946309C0.0837367 1.10878 -0.0429877 1.3629 -0.0429877 1.6328V15.8897C-0.0453376 16.8095 0.311169 17.6748 0.960737 18.326C1.6103 18.9773 2.47472 19.3359 3.39452 19.3359H9.62499C10.0997 19.3359 10.4844 18.9512 10.4844 18.4766C10.4844 18.0019 10.0997 17.6172 9.62499 17.6172H3.39452C2.93462 17.6172 2.50241 17.4379 2.17763 17.1123C1.85284 16.7867 1.67459 16.354 1.67576 15.8919V15.436C2.18182 15.7294 2.76862 15.8984 3.39452 15.8984H9.79687C9.98788 15.8984 10.1186 16.0171 10.1774 16.1281C10.3316 16.4193 10.6294 16.5854 10.9376 16.5854C11.0732 16.5854 11.2108 16.5534 11.3389 16.4854C11.5977 16.3484 11.7573 16.098 11.7897 15.8279C11.8065 15.761 11.8164 15.6913 11.8164 15.6191V4.21093C11.8164 3.26327 12.5873 2.49218 13.5352 2.49218C14.7896 2.49218 15.9006 2.56284 16.8808 2.62511C18.1627 2.70669 19.2498 2.77584 20.2383 2.66859V8.85156C20.2383 9.32623 20.623 9.71094 21.0977 9.71094C21.5723 9.71094 21.957 9.32623 21.957 8.85156V1.6328C21.957 1.3629 21.8303 1.10878 21.6148 0.946309ZM3.39452 14.1797C2.44685 14.1797 1.67576 13.4086 1.67576 12.4609V2.66859C2.66421 2.77584 3.75119 2.70669 5.03304 2.62511C6.01343 2.56284 7.12441 2.49218 8.3789 2.49218C9.32656 2.49218 10.0977 3.26327 10.0977 4.21093V14.2008C9.99896 14.1869 9.89858 14.1797 9.79687 14.1797H3.39452ZM8.63671 5.6289C8.63671 6.10357 8.25201 6.48828 7.77734 6.48828H4.03905C3.56438 6.48828 3.17967 6.10357 3.17967 5.6289C3.17967 5.15423 3.56438 4.76952 4.03905 4.76952H7.77734C8.25201 4.76952 8.63671 5.15423 8.63671 5.6289ZM7.34765 9.0664C7.34765 9.54107 6.96294 9.92578 6.48827 9.92578H4.03905C3.56438 9.92578 3.17967 9.54107 3.17967 9.0664C3.17967 8.59173 3.56438 8.20703 4.03905 8.20703H6.48827C6.96294 8.20703 7.34765 8.59173 7.34765 9.0664ZM17.5566 11.7115L12.8386 16.4191C12.7384 16.5191 12.6644 16.6423 12.6232 16.7778L11.5957 20.1604C11.5047 20.4604 11.5841 20.7861 11.8028 21.0104C11.9668 21.1784 12.1895 21.2697 12.4181 21.2697C12.4945 21.2697 12.5717 21.2595 12.6474 21.2383L16.1161 20.2776C16.2588 20.238 16.3889 20.1623 16.4938 20.0575L21.2021 15.3583C22.2071 14.3531 22.2071 12.7174 21.2021 11.7122C20.1968 10.7069 18.5612 10.7069 17.5566 11.7115ZM15.4394 18.6813L13.6944 19.1647L14.205 17.4836L17.3886 14.3071L18.6041 15.5226L15.4394 18.6813ZM19.9872 14.1423L19.8207 14.3084L18.6053 13.093L18.7713 12.9276C19.1063 12.5924 19.6515 12.5924 19.9865 12.9276C20.3217 13.2626 20.3217 13.8077 19.9872 14.1423Z" fill="#4C51CC"/>
</g>
<defs>
<clipPath id="clip0">
<rect width="22" height="22" fill="white"/>
</clipPath>
</defs>
</svg>

<svg width="22" height="22" fill="none" xmlns="http://www.w3.org/2000/svg"><g clip-path="url(#clip0)"><path d="M21.615.946a.86.86 0 00-.755-.14c-.995.287-2.264.206-3.87.104-1.006-.064-2.146-.137-3.455-.137a3.43 3.43 0 00-2.578 1.168A3.43 3.43 0 008.379.773c-1.31 0-2.45.073-3.455.137-1.606.102-2.875.183-3.87-.103a.86.86 0 00-1.097.826V15.89a3.415 3.415 0 001.004 2.436 3.414 3.414 0 002.434 1.01h6.23a.86.86 0 100-1.719h-6.23c-.46 0-.893-.18-1.217-.505a1.709 1.709 0 01-.502-1.22v-.456a3.416 3.416 0 001.719.462h6.402a.43.43 0 01.38.23.86.86 0 001.613-.3.855.855 0 00.026-.209V4.211c0-.948.771-1.719 1.72-1.719 1.254 0 2.365.07 3.345.133 1.282.082 2.369.15 3.357.044v6.183a.86.86 0 101.719 0v-7.22a.86.86 0 00-.342-.686zM3.395 14.18a1.72 1.72 0 01-1.72-1.72V2.67c.99.107 2.076.038 3.358-.044.98-.062 2.091-.133 3.346-.133a1.72 1.72 0 011.719 1.719v9.99a2.157 2.157 0 00-.301-.021H3.395zm5.242-8.551a.86.86 0 01-.86.86H4.04a.86.86 0 110-1.72h3.738a.86.86 0 01.86.86zm-1.29 3.437a.86.86 0 01-.859.86H4.04a.86.86 0 110-1.719h2.45a.86.86 0 01.859.86zm10.21 2.645l-4.718 4.708a.86.86 0 00-.216.359l-1.027 3.382a.86.86 0 001.051 1.078l3.47-.96a.86.86 0 00.377-.22l4.708-4.7a2.582 2.582 0 000-3.646 2.58 2.58 0 00-3.645 0zm-2.118 6.97l-1.745.484.511-1.681 3.184-3.177 1.215 1.216-3.165 3.158zm4.548-4.539l-.166.166-1.216-1.215.166-.165a.86.86 0 011.216 1.214z" fill="#4C51CC"/></g><defs><clipPath id="clip0"><path fill="#fff" d="M0 0h22v22H0z"/></clipPath></defs></svg>
